packages/foundations/assets/icons/functional/images/technology/augmented_reality_12.svg

<svg width="12" height="12" viewBox="0 0 12 12" fill="none" xmlns="http://www.w3.org/2000/svg">
<g clip-path="url(#clip0_232_457)">
<path fill-rule="evenodd" clip-rule="evenodd" d="M5.2025 8.9316L6 9.31697L6.79627 8.9322C7.0883 8.79546 7.38094 8.93544 7.49741 9.17642C7.61388 9.41739 7.53183 9.72686 7.2573 9.87696L6.22846 10.3728C6.10476 10.4326 5.95056 10.4511 5.77154 10.3728L4.74557 9.87696C4.48452 9.75079 4.37517 9.43687 4.50135 9.17582C4.60812 8.95493 4.89385 8.79546 5.2025 8.9316ZM2.4 6.37516C2.66765 6.37516 2.925 6.59279 2.925 6.90017V7.83076L3.59655 8.15539C3.87267 8.28714 3.95724 8.61556 3.84077 8.85654C3.7243 9.09751 3.4301 9.23547 3.13962 9.10076L2.17154 8.63285C2.01036 8.55494 1.875 8.38026 1.875 8.16016V6.90017C1.875 6.61022 2.11005 6.37516 2.4 6.37516ZM9.6 6.37516C9.86765 6.37516 10.125 6.58905 10.1209 6.90017L10.125 8.16016C10.125 8.33918 10.034 8.50418 9.88639 8.60019L8.87749 9.09248C8.61644 9.21866 8.30252 9.10932 8.17635 8.84826C8.05988 8.60729 8.14746 8.2824 8.42057 8.14712L9.0744 7.83076L9.075 6.90017C9.075 6.58905 9.33235 6.37516 9.6 6.37516ZM7.46244 4.43646C8.07297 4.43646 8.37824 4.70497 8.37824 5.24198C8.37824 5.46178 8.32418 5.63038 8.21607 5.74778C8.13593 5.8327 8.01637 5.89889 7.85738 5.94635C7.96295 6.00255 8.05071 6.10121 8.12067 6.24233C8.30607 6.62652 8.44534 6.91385 8.53847 7.10432C8.59312 7.21608 8.50144 7.34572 8.29239 7.34572C8.18871 7.34572 8.00705 7.31444 7.94007 7.18041L7.55402 6.37159C7.50187 6.26169 7.45099 6.18738 7.40139 6.14867C7.35814 6.11495 7.28882 6.09809 7.19342 6.09809H6.99757V7.0414C6.99757 7.20947 6.86133 7.34572 6.69326 7.34572C6.52519 7.34572 6.38894 7.20947 6.38894 7.0414V4.6789C6.38894 4.545 6.49749 4.43646 6.63138 4.43646H7.46244ZM4.74849 4.43646C4.87588 4.43646 4.99123 4.51004 5.03892 4.63646L5.96467 7.09116C6.01649 7.22856 5.9919 7.34571 5.74686 7.34571C5.52904 7.34571 5.44784 7.29096 5.39289 7.1548L5.22045 6.72749H4.14042L3.99519 7.11843C3.93407 7.283 3.84999 7.34571 3.63215 7.34571C3.41433 7.34571 3.36179 7.23736 3.41433 7.10025L4.35824 4.63646C4.39938 4.5291 4.49401 4.43646 4.61236 4.43646H4.74849ZM4.69993 5.21354L4.31419 6.2936H5.08564L4.69993 5.21354ZM7.39757 4.89355C7.58836 4.89355 7.70474 4.94787 7.74672 5.05652C7.76707 5.10773 7.77725 5.18891 7.77725 5.30006C7.77725 5.43618 7.75244 5.5311 7.70284 5.5848C7.64305 5.65099 7.54003 5.68408 7.39375 5.68408H6.99625V4.89355H7.39757ZM3.82305 3.13422C3.93789 3.37597 3.84077 3.71414 3.57409 3.83369L2.925 4.14136V5.10016C2.925 5.41045 2.66765 5.62516 2.4 5.62516C2.13235 5.62516 1.8792 5.41045 1.875 5.10016V3.81016C1.875 3.63 1.96718 3.46415 2.11625 3.36844L3.12358 2.88525C3.38548 2.76084 3.69865 2.87231 3.82305 3.13422ZM8.81877 2.85974L9.82525 3.33594C9.98799 3.41324 10.0983 3.56767 10.1207 3.74338L10.125 5.10016C10.125 5.39011 9.88995 5.62516 9.6 5.62516C9.33235 5.62516 9.11149 5.42489 9.07909 5.16602L9.0744 4.14136L8.396 3.81948C8.15425 3.70465 8.01291 3.40869 8.14278 3.13422C8.27265 2.85974 8.54895 2.74968 8.81877 2.85974ZM6.15229 1.59773L7.2152 2.09617C7.4771 2.22057 7.58857 2.53374 7.46416 2.79564C7.34933 3.0374 7.07366 3.15097 6.82593 3.06917L5.9994 2.68096L5.21307 3.05517C4.97131 3.17001 4.67323 3.10608 4.52483 2.83435C4.37643 2.56262 4.50135 2.22624 4.77212 2.09617L5.77474 1.62594C5.89353 1.56952 6.02821 1.56012 6.15229 1.59773Z" fill="#1A1C1F"/>
</g>
<defs>
<clipPath id="clip0_232_457">
<rect width="12" height="12" fill="white"/>
</clipPath>
</defs>
</svg>

<svg xmlns="http://www.w3.org/2000/svg" width="12" height="12" fill="none"><g clip-path="url(#a)"><path fill="#1A1C1F" fill-rule="evenodd" d="M5.203 8.932 6 9.317l.796-.385a.52.52 0 0 1 .701.244.53.53 0 0 1-.24.701l-1.029.496a.53.53 0 0 1-.456 0l-1.026-.496a.525.525 0 1 1 .456-.945M2.4 6.375c.268 0 .525.218.525.525v.93l.672.325c.276.132.36.46.244.702a.523.523 0 0 1-.701.244l-.968-.468a.53.53 0 0 1-.297-.473V6.9c0-.29.235-.525.525-.525m7.2 0a.52.52 0 0 1 .52.525l.005 1.26a.53.53 0 0 1-.239.44l-1.009.492a.525.525 0 0 1-.7-.244.53.53 0 0 1 .244-.7l.653-.317.001-.93c0-.312.257-.526.525-.526M7.462 4.436q.916 0 .916.806 0 .33-.162.506a.8.8 0 0 1-.359.198.64.64 0 0 1 .264.296q.277.577.417.862c.055.112-.037.242-.246.242-.103 0-.285-.032-.352-.166l-.386-.808a.6.6 0 0 0-.153-.223q-.064-.05-.208-.05h-.195v.942a.304.304 0 1 1-.61 0V4.68c0-.134.11-.243.243-.243zm-2.714 0c.128 0 .243.074.29.2l.927 2.455c.051.138.027.255-.218.255-.218 0-.3-.055-.354-.191l-.173-.428H4.14l-.145.391c-.06.165-.145.228-.363.228s-.27-.109-.218-.246l.944-2.464c.041-.107.136-.2.254-.2zm-.048.778-.386 1.08h.772zm2.698-.32q.286 0 .349.163a.7.7 0 0 1 .03.243q0 .204-.074.285-.09.1-.31.1h-.397v-.791zm-3.575-1.76c.115.242.018.58-.249.7l-.649.307v.96a.526.526 0 0 1-1.05 0V3.81c0-.181.092-.347.241-.443l1.008-.483a.525.525 0 0 1 .699.25M8.82 2.86l1.006.476a.53.53 0 0 1 .296.407l.004 1.357a.525.525 0 0 1-1.046.066l-.005-1.025-.678-.322a.516.516 0 0 1-.253-.685c.13-.274.406-.384.676-.274M6.152 1.598l1.063.498a.525.525 0 0 1-.39.973L6 2.681l-.786.374a.513.513 0 0 1-.688-.22.54.54 0 0 1 .247-.739l1.003-.47a.53.53 0 0 1 .377-.028" clip-rule="evenodd"/></g><defs><clipPath id="a"><path fill="#fff" d="M0 0h12v12H0z"/></clipPath></defs></svg>
